src/img/cerrar-acordeon.svg

<svg width="32" height="34" viewBox="0 0 32 34" fill="none" xmlns="http://www.w3.org/2000/svg">
<path d="M23.8281 22.8934C23.9375 23.0028 23.9922 23.1434 23.9922 23.3153C23.9922 23.4872 23.9375 23.6278 23.8281 23.7372C23.7031 23.8465 23.5547 23.9012 23.3828 23.9012C23.2266 23.9012 23.0938 23.8465 22.9844 23.7372L16 16.7528L9.01562 23.7372C8.90625 23.8465 8.76562 23.9012 8.59375 23.9012C8.42188 23.9012 8.28125 23.8465 8.17188 23.7372C8.0625 23.6122 8.00781 23.4715 8.00781 23.3153C8.00781 23.1434 8.0625 23.0028 8.17188 22.8934L15.1562 15.909L8.17188 8.92465C8.0625 8.81528 8.00781 8.67465 8.00781 8.50278C8.00781 8.3309 8.0625 8.19028 8.17188 8.0809C8.29688 7.97153 8.4375 7.91684 8.59375 7.91684C8.76562 7.91684 8.90625 7.97153 9.01562 8.0809L16 15.0653L22.9844 8.0809C23.0938 7.97153 23.2344 7.91684 23.4062 7.91684C23.5781 7.91684 23.7188 7.97153 23.8281 8.0809C23.9375 8.2059 23.9922 8.35434 23.9922 8.52621C23.9922 8.68246 23.9375 8.81528 23.8281 8.92465L16.8438 15.909L23.8281 22.8934Z" fill="#EC7000"/>
</svg>

<svg width="32" height="34" fill="none" xmlns="http://www.w3.org/2000/svg"><path d="M23.828 22.893c.11.11.164.25.164.422a.571.571 0 01-.164.422.654.654 0 01-.445.164.543.543 0 01-.399-.164L16 16.753l-6.984 6.984a.571.571 0 01-.422.164.571.571 0 01-.422-.164.624.624 0 01-.164-.422c0-.172.055-.312.164-.422l6.984-6.984-6.984-6.984a.571.571 0 01-.164-.422c0-.172.055-.313.164-.422a.624.624 0 01.422-.164c.172 0 .312.055.422.164L16 15.065l6.984-6.984c.11-.11.25-.164.422-.164s.313.055.422.164a.65.65 0 01.164.445c0 .156-.055.29-.164.399l-6.984 6.984 6.984 6.984z" fill="#EC7000"/></svg>
